assets/illustrations/adobe-photoshop-logo.svg

<svg width="50" height="51" viewBox="0 0 50 51" fill="none" xmlns="http://www.w3.org/2000/svg">
<g clip-path="url(#clip0_217_2750)">
<path d="M8.85417 0.200195H41.1458C46.0417 0.200195 50 4.26002 50 9.28139V41.119C50 46.1404 46.0417 50.2002 41.1458 50.2002H8.85417C3.95833 50.2002 0 46.1404 0 41.119V9.28139C0 4.26002 3.95833 0.200195 8.85417 0.200195Z" fill="#001E36"/>
<path d="M11.25 35.2645V13.2773C11.25 13.1277 11.3125 13.0423 11.4583 13.0423C11.8125 13.0423 12.1458 13.0423 12.625 13.0209C13.125 12.9995 13.6458 12.9995 14.2083 12.9782C14.7708 12.9568 15.375 12.9568 16.0208 12.9354C16.6667 12.9141 17.2917 12.9141 17.9167 12.9141C19.625 12.9141 21.0417 13.1277 22.2083 13.5765C23.25 13.9397 24.2083 14.538 25 15.3286C25.6667 16.0124 26.1875 16.8457 26.5208 17.7645C26.8333 18.6619 27 19.5807 27 20.5423C27 22.3799 26.5833 23.897 25.75 25.0935C24.9167 26.2901 23.75 27.1876 22.3958 27.7004C20.9792 28.2346 19.4167 28.4269 17.7083 28.4269C17.2083 28.4269 16.875 28.4269 16.6667 28.4055C16.4583 28.3841 16.1667 28.3841 15.7708 28.3841V35.2431C15.7917 35.3927 15.6875 35.5209 15.5417 35.5423C15.5208 35.5423 15.5 35.5423 15.4583 35.5423H11.5C11.3333 35.5423 11.25 35.4568 11.25 35.2645ZM15.7917 17.1662V24.3457C16.0833 24.3671 16.3542 24.3884 16.6042 24.3884H17.7083C18.5208 24.3884 19.3333 24.2602 20.1042 24.0038C20.7708 23.8115 21.3542 23.4055 21.8125 22.8713C22.25 22.3371 22.4583 21.6106 22.4583 20.6705C22.4792 20.0081 22.3125 19.3457 21.9792 18.7688C21.625 18.2132 21.125 17.7859 20.5208 17.5508C19.75 17.2303 18.9167 17.1021 18.0625 17.1235C17.5208 17.1235 17.0417 17.1235 16.6458 17.1448C16.2292 17.1235 15.9375 17.1448 15.7917 17.1662Z" fill="#31A8FF"/>
<path d="M40 23.0424C39.375 22.7006 38.7084 22.4655 38 22.3159C37.2292 22.145 36.4584 22.0382 35.6667 22.0382C35.25 22.0168 34.8125 22.0809 34.4167 22.1877C34.1459 22.2518 33.9167 22.4014 33.7709 22.6151C33.6667 22.786 33.6042 22.9997 33.6042 23.192C33.6042 23.3843 33.6875 23.5766 33.8125 23.7476C34 23.9826 34.25 24.1749 34.5209 24.3245C35 24.5809 35.5 24.8159 36 25.0296C37.125 25.4142 38.2084 25.9484 39.2084 26.5894C39.8959 27.0382 40.4584 27.6365 40.8542 28.363C41.1875 29.0467 41.3542 29.7946 41.3334 30.5638C41.3542 31.5681 41.0625 32.5724 40.5209 33.4057C39.9375 34.2604 39.125 34.9228 38.1875 35.3074C37.1667 35.7561 35.9167 35.9912 34.4167 35.9912C33.4584 35.9912 32.5209 35.9057 31.5834 35.7134C30.8542 35.5852 30.125 35.3501 29.4584 35.0296C29.3125 34.9441 29.2084 34.7946 29.2292 34.6236V30.9057C29.2292 30.8416 29.25 30.7561 29.3125 30.7134C29.375 30.6706 29.4376 30.692 29.5001 30.7347C30.3126 31.2262 31.1667 31.5681 32.0834 31.7818C32.875 31.9954 33.7084 32.1023 34.5417 32.1023C35.3334 32.1023 35.8959 31.9954 36.2709 31.8031C36.6042 31.6535 36.8334 31.2903 36.8334 30.9057C36.8334 30.6065 36.6667 30.3288 36.3334 30.051C36 29.7732 35.3126 29.4527 34.2917 29.0467C33.2292 28.6621 32.25 28.1493 31.3334 27.5083C30.6875 27.0382 30.1459 26.4185 29.7501 25.692C29.4167 25.0083 29.25 24.2604 29.2709 23.5125C29.2709 22.5937 29.5209 21.7177 29.9792 20.9271C30.5 20.0724 31.2709 19.3886 32.1667 18.9612C33.1459 18.4484 34.3751 18.2134 35.8542 18.2134C36.7084 18.2134 37.5834 18.2775 38.4375 18.4057C39.0625 18.4912 39.6667 18.6621 40.2292 18.8971C40.3125 18.9185 40.3959 19.004 40.4375 19.0894C40.4584 19.1749 40.4792 19.2604 40.4792 19.3459V22.8288C40.4792 22.9142 40.4375 22.9997 40.375 23.0424C40.1875 23.0852 40.0834 23.0852 40 23.0424Z" fill="#31A8FF"/>
</g>
<defs>
<clipPath id="clip0_217_2750">
<rect width="50" height="50" fill="white" transform="translate(0 0.200195)"/>
</clipPath>
</defs>
</svg>

<svg width="50" height="51" fill="none" xmlns="http://www.w3.org/2000/svg"><g clip-path="url(#a)"><path d="M8.854.2h32.292C46.042.2 50 4.26 50 9.281V41.12c0 5.021-3.958 9.081-8.854 9.081H8.854C3.958 50.2 0 46.14 0 41.12V9.281C0 4.26 3.958.201 8.854.201Z" fill="#001E36"/><path d="M11.25 35.264V13.277c0-.15.063-.235.208-.235.354 0 .688 0 1.167-.021.5-.022 1.02-.022 1.583-.043.563-.021 1.167-.021 1.813-.043.646-.02 1.27-.02 1.896-.02 1.708 0 3.125.213 4.291.662A7.41 7.41 0 0 1 25 15.329a6.826 6.826 0 0 1 1.52 2.436 8.35 8.35 0 0 1 .48 2.777c0 1.838-.417 3.355-1.25 4.551a7.16 7.16 0 0 1-3.354 2.607c-1.417.535-2.98.727-4.688.727-.5 0-.833 0-1.041-.021-.209-.022-.5-.022-.896-.022v6.86a.265.265 0 0 1-.23.298H11.5c-.167 0-.25-.085-.25-.278Zm4.542-18.098v7.18c.291.021.562.042.812.042h1.104c.813 0 1.625-.128 2.396-.384.667-.193 1.25-.599 1.709-1.133.437-.534.645-1.26.645-2.2a3.587 3.587 0 0 0-.479-1.902 3.039 3.039 0 0 0-1.458-1.218c-.771-.32-1.604-.449-2.459-.427-.541 0-1.02 0-1.416.02-.417-.02-.709 0-.854.022ZM40 23.042a7.256 7.256 0 0 0-2-.726 10.713 10.713 0 0 0-2.333-.278 4.095 4.095 0 0 0-1.25.15c-.271.064-.5.213-.646.427a1.157 1.157 0 0 0-.167.577c0 .192.084.385.209.556.187.235.437.427.708.576.479.257.979.492 1.479.706a14.85 14.85 0 0 1 3.208 1.56 4.921 4.921 0 0 1 1.646 1.773c.334.684.5 1.432.48 2.2a5.065 5.065 0 0 1-.813 2.843 5.246 5.246 0 0 1-2.334 1.901c-1.02.45-2.27.684-3.77.684a13.96 13.96 0 0 1-2.834-.278 8.252 8.252 0 0 1-2.125-.683c-.145-.086-.25-.235-.229-.406v-3.718c0-.064.021-.15.084-.193.062-.042.125-.021.187.022a8.788 8.788 0 0 0 2.583 1.047c.792.213 1.625.32 2.459.32.791 0 1.354-.107 1.729-.299a.994.994 0 0 0 .562-.897c0-.3-.166-.577-.5-.855-.333-.278-1.02-.598-2.041-1.004a12.627 12.627 0 0 1-2.959-1.539 5.487 5.487 0 0 1-1.583-1.816 4.68 4.68 0 0 1-.48-2.18c0-.918.25-1.794.71-2.585a5.179 5.179 0 0 1 2.187-1.966c.979-.513 2.208-.748 3.687-.748.854 0 1.73.064 2.584.193a7.168 7.168 0 0 1 1.791.491c.084.022.167.107.209.192.02.086.041.171.041.257v3.483c0 .085-.041.17-.104.213-.188.043-.292.043-.375 0Z" fill="#31A8FF"/></g><defs><clipPath id="a"><path fill="#fff" transform="translate(0 .2)" d="M0 0h50v50H0z"/></clipPath></defs></svg>
